X: 7
T: Father O'Grady's Visit To Bocca
C: Josie McDermott
Z: Rover
S: https://thesession.org/tunes/180#setting48009
R: reel
M: 4/4
L: 1/8
K: Dmaj
|:Adde {g}fd{f}ed|~A3G EF{a}ge|fd{f}ed ~A3G|EF{A}GE D3 e|
{g}fd{f}ed ~A3G|EG ~G2 ABde|fd{f}ed cA {B}AG|EF{A}GE D3z:|
|:d2ze fa{a}ge|df{f}ed (3cBA FG|~G3A GE~E2|ed (3cBA GE~E2|
A2de fa{a}ge|df{f}ed cA~A2|df~f2 gz {b}ag|fgef d3 z:|

